src/components/layout/Footer/vk.svg

<svg width="17" height="10" viewBox="0 0 17 10" fill="none" xmlns="http://www.w3.org/2000/svg">
<path d="M16.5848 8.69557C16.5848 8.63047 16.5197 8.63047 16.5197 8.56536C16.2593 8.0445 15.6733 7.39343 14.892 6.67725C14.5014 6.35171 14.306 6.09128 14.1758 5.96106C13.9805 5.70063 13.9805 5.50532 14.0456 5.24489C14.1107 5.04956 14.3711 4.72402 14.8269 4.13805C15.0873 3.81252 15.2175 3.6172 15.4129 3.42188C16.3895 2.11973 16.8452 1.27332 16.715 0.88268L16.6499 0.817578C16.5848 0.752471 16.5197 0.687366 16.3895 0.687366C16.2593 0.622258 16.0639 0.622258 15.8686 0.687366H13.3945C13.3294 0.687366 13.3294 0.687366 13.1992 0.687366C13.1341 0.687366 13.069 0.687366 13.069 0.687366H13.0039H12.9388L12.8737 0.752467C12.8086 0.817574 12.8086 0.817572 12.8086 0.88268C12.5481 1.59886 12.2226 2.18483 11.8971 2.8359C11.7017 3.16144 11.5064 3.48698 11.3111 3.74741C11.1158 4.00784 10.9856 4.20316 10.8553 4.33338C10.7251 4.46359 10.5949 4.5287 10.5298 4.65891C10.4647 4.72402 10.3345 4.78913 10.3345 4.72403C10.2694 4.72403 10.2043 4.72402 10.2043 4.65891C10.1392 4.59381 10.0741 4.5287 10.009 4.46359C9.94384 4.39848 9.94384 4.26827 9.87873 4.13805C9.87873 4.00784 9.87873 3.87762 9.87873 3.81252C9.87873 3.74741 9.87873 3.55209 9.87873 3.42188C9.87873 3.22655 9.87873 3.09634 9.87873 3.03123C9.87873 2.83591 9.87873 2.57548 9.87873 2.31505C9.87873 2.05462 9.87873 1.85929 9.87873 1.72908C9.87873 1.59886 9.87873 1.40354 9.87873 1.27333C9.87873 1.07801 9.87873 0.947787 9.87873 0.88268C9.87873 0.817572 9.81364 0.687362 9.81364 0.622254C9.74853 0.557147 9.68341 0.492037 9.6183 0.42693C9.5532 0.361822 9.42299 0.361824 9.35788 0.296717C9.03234 0.231609 8.6417 0.166504 8.18595 0.166504C7.14423 0.166504 6.42805 0.231613 6.16762 0.361828C6.0374 0.426936 5.90719 0.492039 5.84208 0.622254C5.71186 0.752469 5.71186 0.817578 5.77697 0.817578C6.1025 0.882686 6.36294 1.01289 6.49315 1.20822L6.55826 1.33844C6.62337 1.40355 6.62336 1.53376 6.68847 1.72908C6.75358 1.9244 6.75358 2.11972 6.75358 2.38015C6.75358 2.7708 6.75358 3.16145 6.75358 3.42188C6.75358 3.74741 6.68847 3.94273 6.68847 4.13805C6.68847 4.33337 6.62337 4.46359 6.55826 4.5287C6.49316 4.65892 6.49315 4.72403 6.42804 4.72403C6.42804 4.72403 6.42804 4.78913 6.36293 4.78913C6.29782 4.78913 6.23272 4.85424 6.1025 4.85424C6.0374 4.85424 5.90719 4.78913 5.84208 4.72403C5.71186 4.65892 5.58165 4.5287 5.51654 4.39849C5.38633 4.26827 5.25611 4.07295 5.12589 3.81252C4.99568 3.55209 4.80035 3.29166 4.67013 2.90102L4.53993 2.64059C4.47482 2.51037 4.34461 2.24994 4.21439 1.9244C4.08418 1.59887 3.95396 1.33844 3.82374 1.0129C3.75864 0.882688 3.69354 0.817574 3.62843 0.752467H3.56332C3.56332 0.752467 3.4982 0.687366 3.4331 0.687366C3.36799 0.687366 3.30289 0.622254 3.23778 0.622254H0.893909C0.633479 0.622254 0.503266 0.68736 0.438158 0.752467L0.373047 0.817578C0.373047 0.817578 0.373047 0.882684 0.373047 0.947791C0.373047 1.0129 0.373051 1.078 0.438158 1.20822C0.763696 1.98951 1.15434 2.7708 1.54498 3.55209C1.93563 4.26827 2.32628 4.91935 2.58671 5.3751C2.91224 5.83085 3.17267 6.2866 3.49821 6.67725C3.82374 7.06789 4.01906 7.32832 4.08417 7.45854C4.21438 7.58875 4.27949 7.65385 4.3446 7.71896L4.53993 7.91429C4.67014 8.0445 4.86546 8.23983 5.12589 8.43515C5.38632 8.63047 5.71186 8.82579 6.03739 9.02111C6.36293 9.21643 6.75358 9.34666 7.14423 9.47687C7.59998 9.60709 7.99062 9.67219 8.38127 9.60708H9.35788C9.5532 9.60708 9.68342 9.54198 9.81364 9.41176L9.87873 9.34665C9.87873 9.28154 9.94384 9.28154 9.94384 9.21644C9.94384 9.15133 9.94384 9.08622 9.94384 8.95601C9.94384 8.69558 9.94384 8.50026 10.009 8.30494C10.0741 8.10961 10.0741 7.9794 10.1392 7.84919C10.2043 7.71897 10.2694 7.65386 10.3345 7.58875C10.3996 7.52364 10.4647 7.45854 10.4647 7.45854H10.5298C10.66 7.39343 10.8553 7.45853 10.9856 7.58875C11.1809 7.71896 11.3762 7.91429 11.5064 8.10961C11.6366 8.30493 11.832 8.50026 12.0924 8.76069C12.3528 9.02112 12.5481 9.21644 12.6784 9.28155L12.8737 9.41176C13.0039 9.47687 13.1341 9.54198 13.3294 9.60708C13.5248 9.67219 13.655 9.67219 13.7852 9.67219L15.9988 9.60708C16.1942 9.60708 16.3895 9.54198 16.5197 9.47687C16.6499 9.41176 16.715 9.34665 16.715 9.21644C16.715 9.15133 16.715 9.02112 16.715 8.95601C16.5848 8.8258 16.5848 8.76068 16.5848 8.69557Z" fill="white"/>
</svg>

<svg xmlns="http://www.w3.org/2000/svg" width="17" height="10" fill="none"><path fill="#fff" d="M16.585 8.696c0-.066-.065-.066-.065-.13-.26-.522-.847-1.173-1.628-1.889-.39-.325-.586-.586-.716-.716-.196-.26-.196-.456-.13-.716.065-.195.325-.521.78-1.107.261-.325.391-.52.587-.716.977-1.302 1.432-2.149 1.302-2.54L16.65.819c-.065-.066-.13-.13-.26-.13-.13-.066-.326-.066-.521 0h-2.93l-.065.064c-.065.066-.065.066-.065.13-.26.717-.586 1.303-.912 1.954-.195.325-.39.651-.586.911-.195.26-.325.456-.456.586-.13.13-.26.196-.325.326-.065.065-.195.13-.195.065-.066 0-.13 0-.13-.065l-.196-.195c-.065-.066-.065-.196-.13-.326V.883c0-.065-.065-.196-.065-.26L9.618.426c-.065-.065-.195-.065-.26-.13a5.84 5.84 0 0 0-1.172-.13c-1.042 0-1.758.065-2.018.195-.13.065-.26.13-.326.26-.13.13-.13.196-.065.196.325.065.586.195.716.39l.065.13c.065.066.065.196.13.391.066.195.066.39.066.651v1.042c0 .325-.066.52-.066.716 0 .195-.065.326-.13.39-.065.13-.065.196-.13.196 0 0 0 .065-.065.065s-.13.065-.26.065a.494.494 0 0 1-.26-.13.785.785 0 0 1-.326-.326c-.13-.13-.26-.325-.391-.585-.13-.26-.326-.521-.456-.912l-.13-.26a9.213 9.213 0 0 1-.326-.717c-.13-.325-.26-.586-.39-.911a.899.899 0 0 0-.196-.26h-.065s-.065-.066-.13-.066-.13-.065-.195-.065H.894c-.26 0-.39.065-.456.13L.373.818v.13c0 .065 0 .13.065.26.326.782.716 1.563 1.107 2.344.39.716.781 1.367 1.042 1.823.325.456.586.912.911 1.302.326.39.521.651.586.782l.26.26.196.195c.13.13.325.326.586.521.26.195.586.39.911.586.326.195.717.326 1.107.456.456.13.847.195 1.237.13h.977a.591.591 0 0 0 .456-.195l.065-.065c0-.065.065-.065.065-.13v-.261c0-.26 0-.456.065-.651s.065-.326.13-.456a.899.899 0 0 1 .196-.26l.13-.13h.065c.13-.066.325 0 .456.13.195.13.39.325.52.52.13.196.326.391.586.652.26.26.456.455.586.52l.196.13c.13.066.26.131.455.196.196.065.326.065.456.065L16 9.607c.195 0 .39-.065.52-.13s.196-.13.196-.26v-.261c-.13-.13-.13-.195-.13-.26Z"/></svg>
